public/icons/flags/kr.svg

<svg viewBox="0 0 20 14" fill="none" xmlns="http://www.w3.org/2000/svg">
<g>
<path d="M21.8705 -0.15686H-2.16528V14.1568H21.8705V-0.15686Z" fill="white"/>
<path d="M2.99854 4.3543L4.88866 1.37671L2.99854 4.3543ZM3.70841 4.85078L5.59853 1.87319L3.70841 4.85078ZM4.41705 5.34726L6.30717 2.36967L4.41705 5.34726Z" fill="black"/>
<path d="M4.65306 5.51176L4.18022 5.1799L6.07035 2.20231L6.54319 2.53417L4.65306 5.51176ZM3.94442 5.01528L3.47158 4.68342L5.3617 1.70583L5.83454 2.03768L3.94442 5.01528ZM3.23578 4.51879L2.76294 4.18694L4.65306 1.20935L5.1259 1.5412L3.23578 4.51879Z" fill="black"/>
<path d="M13.396 11.6304L15.2861 8.65277L13.396 11.6304ZM14.1046 12.1268L15.9948 9.14925L14.1046 12.1268ZM14.8133 12.6233L16.7034 9.64573L14.8133 12.6233Z" fill="black"/>
<path d="M15.051 12.7906L14.5782 12.4587L16.4683 9.48112L16.9411 9.81297L15.051 12.7906ZM14.3424 12.2941L13.8695 11.9622L15.7597 8.98464L16.2325 9.31649L14.3424 12.2941ZM13.6325 11.7976L13.1597 11.4658L15.0498 8.48816L15.5226 8.82001L13.6325 11.7976Z" fill="black"/>
<path d="M13.8691 9.81287L16.2321 11.4656L13.8691 9.81287Z" fill="black"/>
<path d="M13.9488 9.68624L13.7913 9.93433L16.155 11.5889L16.3125 11.3408L13.9488 9.68624Z" fill="white"/>
<path d="M9.85176 10.5791C11.7343 10.5791 13.2604 8.9767 13.2604 7.00003C13.2604 5.02336 11.7343 3.42096 9.85176 3.42096C7.96922 3.42096 6.44312 5.02336 6.44312 7.00003C6.44312 8.9767 7.96922 10.5791 9.85176 10.5791Z" fill="#CD2E3A"/>
<path d="M7.01571 5.01538C6.49349 5.83853 6.7046 6.94816 7.48855 7.49649C8.2725 8.04483 9.32929 7.82316 9.85151 7.00001C10.3737 6.17686 11.4305 5.9552 12.2145 6.50353C12.9984 7.05186 13.2095 8.16149 12.6873 8.98464C11.6416 10.6283 9.52682 11.0743 7.96139 9.9776C6.39596 8.88094 5.97127 6.65908 7.01571 5.01538Z" fill="#0047A0"/>
<path d="M4.88989 12.6233L2.99854 9.64573L4.88989 12.6233ZM5.59853 12.1268L3.70841 9.14925L5.59853 12.1268ZM6.30717 11.6304L4.41705 8.65277L6.30717 11.6304Z" fill="black"/>
<path d="M4.65306 12.7906L2.76294 9.81297L3.23578 9.48112L5.1259 12.4587L4.65306 12.7906ZM5.3617 12.2941L3.47158 9.31649L3.94442 8.98464L5.83454 11.9622L5.3617 12.2941ZM6.07158 11.7976L4.18022 8.82001L4.65306 8.48816L6.54319 11.4658L6.07158 11.7976Z" fill="black"/>
<path d="M15.2861 5.34726L13.396 2.36967L15.2861 5.34726ZM15.9948 4.85078L14.1046 1.87319L15.9948 4.85078ZM16.7046 4.3543L14.8145 1.37671L16.7046 4.3543Z" fill="black"/>
<path d="M15.0503 5.51176L13.1602 2.53417L13.633 2.20231L15.5231 5.1799L15.0503 5.51176ZM15.7589 5.01528L13.8688 2.03768L14.3416 1.70583L16.2318 4.68342L15.7589 5.01528ZM16.4676 4.51879L14.5774 1.5412L15.0503 1.20935L16.9404 4.18694L16.4676 4.51879Z" fill="black"/>
<path d="M4.29883 10.8863L5.00747 10.3898L4.29883 10.8863ZM13.8692 4.187L14.6964 3.60756L13.8692 4.187ZM15.405 3.11367L16.1136 2.61719L15.405 3.11367Z" fill="black"/>
<path d="M4.37896 11.0107L4.22217 10.7618L4.93081 10.2653L5.0876 10.5129L4.37896 11.0107ZM13.9481 4.31143L13.7913 4.06383L14.6185 3.48439L14.7752 3.73198L13.9481 4.31143ZM15.4839 3.23809L15.3271 2.9905L16.0357 2.49402L16.1925 2.74161L15.4839 3.23809Z" fill="white"/>
</g>
</svg>

<svg viewBox="0 0 20 14" fill="none" xmlns="http://www.w3.org/2000/svg"><path d="M21.87-.157H-2.165v14.314H21.87V-.157Z" fill="#fff"/><path d="m2.999 4.354 1.89-2.977-1.89 2.977Zm.71.497 1.89-2.978-1.89 2.978Zm.708.496 1.89-2.977-1.89 2.977Z" fill="#000"/><path d="M4.653 5.512 4.18 5.18l1.89-2.978.473.332-1.89 2.978Zm-.709-.497-.472-.332 1.89-2.977.473.332-1.89 2.977Zm-.708-.496-.473-.332 1.89-2.978.473.332-1.89 2.978ZM13.396 11.63l1.89-2.977-1.89 2.977Zm.709.497 1.89-2.978-1.89 2.978Zm.708.496 1.89-2.977-1.89 2.977Z" fill="#000"/><path d="m15.051 12.79-.473-.331 1.89-2.978.473.332-1.89 2.978Zm-.709-.496-.473-.332 1.89-2.977.474.331-1.89 2.978Zm-.71-.496-.472-.332 1.89-2.978.473.332-1.89 2.978Z" fill="#000"/><path d="m13.87 9.813 2.362 1.653-2.363-1.653Z" fill="#000"/><path d="m13.949 9.686-.158.248 2.364 1.655.157-.248-2.363-1.655Z" fill="#fff"/><path d="M9.852 10.58c1.882 0 3.408-1.603 3.408-3.58s-1.526-3.579-3.408-3.579C7.969 3.421 6.443 5.023 6.443 7s1.526 3.58 3.409 3.58Z" fill="#CD2E3A"/><path d="M7.016 5.015c-.523.824-.311 1.933.473 2.481.784.549 1.84.327 2.363-.496.522-.823 1.579-1.045 2.362-.496.784.548.995 1.657.473 2.48-1.045 1.644-3.16 2.09-4.726.994-1.565-1.097-1.99-3.319-.945-4.963Z" fill="#0047A0"/><path d="M4.89 12.623 2.999 9.646l1.89 2.977Zm.709-.496-1.89-2.978 1.89 2.978Zm.708-.497-1.89-2.977 1.89 2.977Z" fill="#000"/><path d="m4.653 12.79-1.89-2.977.473-.332 1.89 2.978-.473.332Zm.709-.496-1.89-2.978.472-.331 1.89 2.977-.472.332Zm.71-.496L4.18 8.82l.473-.332 1.89 2.978-.471.332ZM15.286 5.347l-1.89-2.977 1.89 2.977Zm.709-.496-1.89-2.978 1.89 2.978Zm.71-.497-1.89-2.977 1.89 2.977ZM15.05 5.512l-1.89-2.978.473-.332 1.89 2.978-.473.332Zm.709-.497-1.89-2.977.473-.332 1.89 2.977-.473.332Zm.709-.496-1.89-2.978.472-.332 1.89 2.978-.472.332Z" fill="#000"/><path d="m4.299 10.886.708-.496-.708.496Zm9.57-6.699.827-.58-.827.58Zm1.536-1.073.709-.497-.709.497Z" fill="#000"/><path d="m4.379 11.01-.157-.248.709-.497.157.248-.709.498Zm9.57-6.699-.158-.247.827-.58.157.248-.827.58Zm1.535-1.073-.157-.248.709-.496.156.248-.708.496Z" fill="#fff"/></svg>
